X:97
T:Dick Glasgow's
O:Trad
R:Slip Jig
S:Dick Glasgow (fiddle) DickGlasgow@causewaymusic.co.uk
S:Ted Hastings <ted@hastings.nu> scots-l 2001-10-19
N:Dick says that it is not one of his own compositions,
N:but a traditional tune for which he has no title.
D:Private tape
Z:Bernie Stocks
M:9/8
L:1/8
K:G
ABA dcA d2c | ABA cdA G3 | ABA dcA d2e | g2d ege dBG :|
GBB GBd g3 | GBB fge fed | GBB GBd gag | fgf efe dBA :|
